X: 11233
T: Dusty Miller
R: three-two
M: 3/2
K: Fmajor
|:A3B c2A2 G2F2|E3G G2B2 A2G2|A3B c2A2 G2F2|C2F2 F2A2 G2F2:|
|:A3B c2d2 e2f2|g2G2 G2B2 A2G2|A2B2 c2f2 e2g2|f2F2 F2A2 G2F2:|

